public/logos/AY.svg

<?xml version="1.0" encoding="UTF-8"?>
<svg xmlns="http://www.w3.org/2000/svg" xmlns:xlink="http://www.w3.org/1999/xlink" width="176pt" height="19.26pt" viewBox="0 0 176 19.26" version="1.1">
<defs>
<clipPath id="clip1">
  <path d="M 0 0 L 33 0 L 33 19.261719 L 0 19.261719 Z M 0 0 "/>
</clipPath>
<clipPath id="clip2">
  <path d="M 25 0 L 43 0 L 43 19.261719 L 25 19.261719 Z M 25 0 "/>
</clipPath>
<clipPath id="clip3">
  <path d="M 37 0 L 73 0 L 73 19.261719 L 37 19.261719 Z M 37 0 "/>
</clipPath>
<clipPath id="clip4">
  <path d="M 67 0 L 103 0 L 103 19.261719 L 67 19.261719 Z M 67 0 "/>
</clipPath>
<clipPath id="clip5">
  <path d="M 97 0 L 132 0 L 132 19.261719 L 97 19.261719 Z M 97 0 "/>
</clipPath>
<clipPath id="clip6">
  <path d="M 130 0 L 147 0 L 147 19.261719 L 130 19.261719 Z M 130 0 "/>
</clipPath>
<clipPath id="clip7">
  <path d="M 142 0 L 176 0 L 176 19.261719 L 142 19.261719 Z M 142 0 "/>
</clipPath>
</defs>
<g id="surface1">
<g clip-path="url(#clip1)" clip-rule="nonzero">
<path style=" stroke:none;fill-rule:nonzero;fill:rgb(12.956238%,14.689636%,34.100342%);fill-opacity:1;" d="M 15.828125 0.707031 C 16.710938 0.238281 17.703125 -0.00390625 18.703125 0.0195312 C 23.164062 0.0195312 27.628906 0.0351562 32.09375 0.015625 C 31.507812 1.308594 30.890625 3.007812 29.234375 3.15625 C 25.089844 3.273438 20.929688 3.148438 16.777344 3.214844 C 15.753906 3.199219 14.730469 3.738281 14.292969 4.691406 C 13.402344 6.445312 12.597656 8.242188 11.71875 10.007812 C 15.277344 10.003906 18.835938 10.007812 22.394531 10 C 22.085938 10.605469 21.851562 11.277344 21.363281 11.769531 C 20.765625 12.238281 19.953125 12.152344 19.246094 12.171875 C 16.488281 12.136719 13.730469 12.203125 10.976562 12.136719 C 9.984375 13.996094 9.144531 15.933594 8.183594 17.8125 C 7.746094 18.699219 6.789062 19.273438 5.800781 19.238281 C 3.867188 19.238281 1.929688 19.308594 0 19.175781 L 0 19.070312 C 0.03125 19.078125 0.101562 19.097656 0.136719 19.105469 C 1.808594 15.496094 3.550781 11.921875 5.28125 8.335938 C 6.128906 6.539062 7.582031 5.054688 9.332031 4.113281 C 11.484375 2.953125 13.660156 1.84375 15.828125 0.707031 "/>
</g>
<g clip-path="url(#clip2)" clip-rule="nonzero">
<path style=" stroke:none;fill-rule:nonzero;fill:rgb(12.956238%,14.689636%,34.100342%);fill-opacity:1;" d="M 34.316406 1.585938 C 34.765625 0.636719 35.789062 0.046875 36.828125 0.03125 C 38.722656 0 40.621094 0.0429688 42.519531 0.0117188 C 39.726562 5.886719 36.867188 11.730469 34.054688 17.597656 C 33.660156 18.558594 32.695312 19.246094 31.648438 19.234375 C 29.699219 19.261719 27.75 19.238281 25.800781 19.242188 C 28.636719 13.355469 31.476562 7.472656 34.316406 1.585938 "/>
</g>
<g clip-path="url(#clip3)" clip-rule="nonzero">
<path style=" stroke:none;fill-rule:nonzero;fill:rgb(12.956238%,14.689636%,34.100342%);fill-opacity:1;" d="M 50.128906 0.121094 C 50.75 -0.1875 51.472656 0.164062 51.808594 0.71875 C 54.589844 4.542969 57.386719 8.351562 60.195312 12.152344 C 60.503906 12.574219 60.734375 13.039062 60.964844 13.507812 C 62.742188 9.988281 64.394531 6.40625 66.117188 2.859375 C 66.558594 1.984375 66.882812 0.925781 67.8125 0.433594 C 69.097656 -0.253906 70.617188 0.105469 72.011719 0.0273438 C 68.910156 6.433594 65.816406 12.839844 62.71875 19.25 C 61.144531 19.226562 59.574219 19.28125 58.003906 19.226562 C 57.03125 19.195312 56.277344 18.472656 55.722656 17.742188 C 53.554688 14.851562 51.382812 11.96875 49.210938 9.085938 C 48.742188 8.496094 48.289062 7.894531 47.96875 7.207031 C 46.203125 10.722656 44.578125 14.308594 42.832031 17.832031 C 42.433594 18.609375 41.625 19.179688 40.746094 19.226562 C 39.71875 19.285156 38.695312 19.234375 37.667969 19.246094 C 39.851562 14.566406 42.089844 9.90625 44.316406 5.246094 C 45.039062 3.710938 46.117188 2.304688 47.601562 1.445312 C 48.421875 0.964844 49.257812 0.503906 50.128906 0.121094 "/>
</g>
<g clip-path="url(#clip4)" clip-rule="nonzero">
<path style=" stroke:none;fill-rule:nonzero;fill:rgb(12.956238%,14.689636%,34.100342%);fill-opacity:1;" d="M 80.398438 0.121094 C 81.007812 -0.179688 81.714844 0.148438 82.058594 0.6875 C 84.84375 4.515625 87.644531 8.335938 90.457031 12.144531 C 90.773438 12.566406 91.007812 13.042969 91.238281 13.511719 C 93.21875 9.570312 95.070312 5.5625 97.007812 1.601562 C 97.410156 0.734375 98.300781 0.164062 99.238281 0.0625 C 100.246094 -0.0234375 101.257812 0.0429688 102.265625 0.015625 C 99.207031 6.445312 96.078125 12.839844 92.980469 19.253906 C 91.40625 19.226562 89.824219 19.285156 88.242188 19.226562 C 87.199219 19.171875 86.433594 18.351562 85.855469 17.5625 C 83.394531 14.246094 80.863281 10.980469 78.429688 7.640625 C 78.351562 7.578125 78.191406 7.445312 78.113281 7.382812 C 76.527344 10.769531 74.878906 14.125 73.28125 17.503906 C 72.917969 18.332031 72.191406 19.070312 71.261719 19.195312 C 70.164062 19.308594 69.058594 19.214844 67.960938 19.257812 C 69.738281 15.316406 71.648438 11.425781 73.503906 7.515625 C 74.296875 5.957031 74.902344 4.261719 76.074219 2.933594 C 77.226562 1.613281 78.851562 0.871094 80.398438 0.121094 "/>
</g>
<g clip-path="url(#clip5)" clip-rule="nonzero">
<path style=" stroke:none;fill-rule:nonzero;fill:rgb(12.956238%,14.689636%,34.100342%);fill-opacity:1;" d="M 112.242188 4.699219 C 111.351562 6.449219 110.550781 8.242188 109.667969 10 C 113.816406 10.011719 117.964844 10.003906 122.113281 10.003906 C 122.945312 8.253906 123.792969 6.511719 124.648438 4.769531 C 124.78125 4.402344 125.105469 4 124.90625 3.601562 C 124.582031 3.128906 123.972656 3.21875 123.480469 3.195312 C 120.546875 3.21875 117.613281 3.179688 114.679688 3.214844 C 113.652344 3.1875 112.675781 3.761719 112.242188 4.699219 Z M 113.464844 0.734375 C 114.339844 0.261719 115.320312 0.0078125 116.320312 0.0234375 C 118.429688 0.0234375 120.542969 0.0195312 122.65625 0.0234375 C 124.191406 0.015625 125.699219 0.582031 126.882812 1.5625 C 128.230469 2.601562 129.617188 3.589844 130.957031 4.648438 C 131.558594 5.058594 131.601562 5.867188 131.261719 6.46875 C 129.230469 10.734375 127.140625 14.972656 125.117188 19.238281 C 123.363281 19.238281 121.609375 19.261719 119.859375 19.234375 C 118.914062 19.300781 118.136719 18.203125 118.597656 17.347656 C 119.351562 15.589844 120.277344 13.914062 121.054688 12.164062 C 116.910156 12.15625 112.769531 12.160156 108.625 12.160156 C 107.71875 14 106.847656 15.855469 105.941406 17.695312 C 105.535156 18.550781 104.675781 19.210938 103.710938 19.226562 C 101.71875 19.277344 99.726562 19.214844 97.734375 19.253906 C 99.464844 15.617188 101.214844 11.988281 102.960938 8.359375 C 103.808594 6.570312 105.234375 5.078125 106.976562 4.136719 C 109.132812 2.992188 111.300781 1.867188 113.464844 0.734375 "/>
</g>
<g clip-path="url(#clip6)" clip-rule="nonzero">
<path style=" stroke:none;fill-rule:nonzero;fill:rgb(12.956238%,14.689636%,34.100342%);fill-opacity:1;" d="M 138.3125 2.210938 C 138.699219 1.136719 139.566406 0.183594 140.757812 0.0664062 C 142.765625 -0.046875 144.78125 0.0664062 146.789062 0.0117188 C 144.082031 5.859375 141.199219 11.632812 138.429688 17.453125 C 138.050781 18.390625 137.191406 19.171875 136.152344 19.226562 C 134.136719 19.28125 132.117188 19.234375 130.097656 19.246094 C 132.839844 13.566406 135.582031 7.894531 138.3125 2.210938 "/>
</g>
<g clip-path="url(#clip7)" clip-rule="nonzero">
<path style=" stroke:none;fill-rule:nonzero;fill:rgb(12.956238%,14.689636%,34.100342%);fill-opacity:1;" d="M 156.898438 4.5625 C 156.046875 6.21875 155.277344 7.917969 154.445312 9.582031 C 157.78125 9.574219 161.117188 9.589844 164.453125 9.570312 C 165.570312 9.574219 166.910156 9.34375 167.503906 8.269531 C 168.113281 7.128906 168.609375 5.929688 169.199219 4.777344 C 169.34375 4.402344 169.671875 3.988281 169.449219 3.578125 C 169.105469 3.144531 168.523438 3.199219 168.035156 3.195312 C 165.101562 3.214844 162.171875 3.175781 159.238281 3.214844 C 158.292969 3.21875 157.339844 3.703125 156.898438 4.5625 Z M 155.765625 2.046875 C 157.414062 1.28125 158.96875 0.0507812 160.863281 0.03125 C 163.074219 0.015625 165.28125 0.0078125 167.492188 0.0351562 C 169.496094 0.105469 171.207031 1.257812 172.695312 2.496094 C 173.78125 3.425781 175.132812 4.085938 176 5.246094 L 176 5.957031 C 175.492188 7.269531 174.898438 8.554688 174.238281 9.796875 C 173.5 11.121094 171.886719 11.542969 170.484375 11.683594 C 168.164062 11.867188 165.835938 11.636719 163.515625 11.816406 C 163.582031 11.902344 163.714844 12.082031 163.78125 12.167969 C 165.113281 12.660156 167.046875 12.195312 167.851562 13.648438 C 168.980469 15.523438 170.105469 17.394531 171.25 19.261719 C 168.984375 19.21875 166.714844 19.277344 164.449219 19.234375 C 163.582031 19.265625 162.769531 18.792969 162.335938 18.058594 C 161.292969 16.429688 160.363281 14.734375 159.351562 13.09375 C 158.960938 12.457031 158.363281 11.886719 157.589844 11.804688 C 156.285156 11.675781 154.972656 11.789062 153.667969 11.746094 C 152.710938 13.652344 151.808594 15.582031 150.863281 17.492188 C 150.460938 18.425781 149.589844 19.214844 148.53125 19.222656 C 146.535156 19.289062 144.542969 19.21875 142.550781 19.253906 C 144.410156 15.382812 146.210938 11.476562 148.152344 7.648438 C 149.71875 4.703125 153.023438 3.574219 155.765625 2.046875 "/>
</g>
</g>
</svg>

<svg xmlns="http://www.w3.org/2000/svg" width="176pt" height="25.68" viewBox="0 0 176 19.26"><defs><clipPath id="a"><path d="M0 0h33v19.262H0Zm0 0"/></clipPath><clipPath id="b"><path d="M25 0h18v19.262H25Zm0 0"/></clipPath><clipPath id="c"><path d="M37 0h36v19.262H37Zm0 0"/></clipPath><clipPath id="d"><path d="M67 0h36v19.262H67Zm0 0"/></clipPath><clipPath id="e"><path d="M97 0h35v19.262H97Zm0 0"/></clipPath><clipPath id="f"><path d="M130 0h17v19.262h-17Zm0 0"/></clipPath><clipPath id="g"><path d="M142 0h34v19.262h-34Zm0 0"/></clipPath></defs><g clip-path="url(#a)"><path d="M15.828.707A5.85 5.85 0 0 1 18.703.02c4.461 0 8.926.015 13.39-.004-.585 1.293-1.202 2.992-2.859 3.14-4.144.117-8.304-.008-12.457.059-1.023-.016-2.047.523-2.484 1.476-.89 1.754-1.695 3.551-2.574 5.317 3.558-.004 7.117 0 10.676-.008-.31.605-.543 1.277-1.032 1.77-.597.468-1.41.382-2.117.402-2.758-.035-5.516.031-8.27-.035-.992 1.86-1.831 3.797-2.792 5.676A2.6 2.6 0 0 1 5.8 19.238c-1.934 0-3.871.07-5.801-.062v-.106c.031.008.102.028.137.035 1.672-3.609 3.414-7.183 5.144-10.77.848-1.796 2.301-3.28 4.051-4.222 2.152-1.16 4.328-2.27 6.496-3.406" style="stroke:none;fill-rule:nonzero;fill:#212557;fill-opacity:1"/></g><g clip-path="url(#b)"><path d="M34.316 1.586c.45-.95 1.473-1.54 2.512-1.555C38.723 0 40.621.043 42.52.011c-2.793 5.876-5.653 11.72-8.465 17.587-.395.96-1.36 1.648-2.407 1.636-1.949.028-3.898.004-5.847.008q4.255-8.829 8.515-17.656" style="stroke:none;fill-rule:nonzero;fill:#212557;fill-opacity:1"/></g><g clip-path="url(#c)"><path d="M50.129.121c.621-.308 1.344.043 1.68.598 2.78 3.824 5.578 7.633 8.386 11.433.309.422.54.887.77 1.356 1.777-3.52 3.43-7.102 5.152-10.649.442-.875.766-1.933 1.695-2.425 1.286-.688 2.805-.329 4.2-.407-3.102 6.407-6.196 12.813-9.293 19.223-1.574-.023-3.145.031-4.715-.023-.973-.032-1.727-.754-2.281-1.485Q52.47 13.41 49.21 9.086c-.469-.59-.922-1.191-1.242-1.879-1.766 3.516-3.39 7.102-5.137 10.625-.398.777-1.207 1.348-2.086 1.395-1.027.058-2.05.007-3.078.02 2.184-4.68 4.422-9.34 6.648-14 .723-1.536 1.801-2.942 3.286-3.802.82-.48 1.656-.941 2.527-1.324" style="stroke:none;fill-rule:nonzero;fill:#212557;fill-opacity:1"/></g><g clip-path="url(#d)"><path d="M80.398.121c.61-.3 1.317.027 1.66.567q4.18 5.743 8.399 11.457c.316.421.55.898.781 1.367 1.98-3.942 3.832-7.95 5.77-11.91C97.41.734 98.3.164 99.238.062c1.008-.085 2.02-.019 3.028-.046-3.059 6.43-6.188 12.824-9.286 19.238-1.574-.027-3.156.031-4.738-.027-1.043-.055-1.808-.875-2.387-1.665-2.46-3.316-4.992-6.582-7.425-9.921-.078-.063-.239-.196-.317-.258-1.586 3.387-3.234 6.742-4.832 10.12-.363.829-1.09 1.567-2.02 1.692-1.097.114-2.202.02-3.3.063 1.777-3.942 3.687-7.832 5.543-11.742.793-1.559 1.398-3.254 2.57-4.582C77.227 1.614 78.852.87 80.398.12" style="stroke:none;fill-rule:nonzero;fill:#212557;fill-opacity:1"/></g><g clip-path="url(#e)"><path d="M112.242 4.7c-.89 1.75-1.691 3.542-2.574 5.3 4.148.012 8.297.004 12.445.004a460 460 0 0 1 2.535-5.234c.133-.368.457-.77.258-1.168-.324-.473-.933-.383-1.426-.407-2.933.024-5.867-.015-8.8.02-1.028-.027-2.004.547-2.438 1.484m1.223-3.966a5.8 5.8 0 0 1 2.855-.71c2.11 0 4.223-.004 6.336 0 1.535-.008 3.043.558 4.227 1.539 1.347 1.039 2.734 2.027 4.074 3.085.602.41.645 1.22.305 1.82-2.032 4.266-4.121 8.505-6.145 12.77-1.754 0-3.508.024-5.258-.004-.945.067-1.722-1.03-1.261-1.886.754-1.758 1.68-3.434 2.457-5.184-4.145-.008-8.285-.004-12.43-.004-.906 1.84-1.777 3.695-2.684 5.535-.406.856-1.265 1.516-2.23 1.532-1.992.05-3.984-.012-5.977.027 1.73-3.637 3.48-7.266 5.227-10.895a9.4 9.4 0 0 1 4.016-4.222c2.156-1.145 4.324-2.27 6.488-3.403" style="stroke:none;fill-rule:nonzero;fill:#212557;fill-opacity:1"/></g><g clip-path="url(#f)"><path d="M138.313 2.21c.386-1.073 1.253-2.026 2.445-2.144 2.008-.113 4.023 0 6.031-.054-2.707 5.847-5.59 11.62-8.36 17.441-.378.938-1.238 1.719-2.277 1.774-2.015.054-4.035.007-6.054.02 2.742-5.68 5.484-11.352 8.214-17.036" style="stroke:none;fill-rule:nonzero;fill:#212557;fill-opacity:1"/></g><g clip-path="url(#g)"><path d="M156.898 4.563c-.851 1.656-1.62 3.355-2.453 5.019 3.336-.008 6.672.008 10.008-.012 1.117.004 2.457-.226 3.05-1.3.61-1.141 1.106-2.34 1.696-3.493.145-.375.473-.789.25-1.199-.344-.433-.926-.379-1.414-.383-2.933.02-5.863-.02-8.797.02-.945.004-1.898.488-2.34 1.348m-1.132-2.516c1.648-.766 3.203-1.996 5.097-2.016 2.211-.015 4.418-.023 6.63.004 2.003.07 3.714 1.223 5.202 2.461 1.086.93 2.438 1.59 3.305 2.75v.711a36 36 0 0 1-1.762 3.84c-.738 1.324-2.351 1.746-3.754 1.887-2.32.183-4.648-.047-6.968.132.066.086.199.266.265.352 1.332.492 3.266.027 4.07 1.48 1.13 1.875 2.254 3.747 3.399 5.614-2.266-.043-4.535.015-6.8-.028-.868.032-1.68-.441-2.114-1.175-1.043-1.63-1.973-3.325-2.984-4.965-.391-.637-.989-1.207-1.762-1.29-1.305-.128-2.617-.015-3.922-.058-.957 1.906-1.86 3.836-2.805 5.746-.402.934-1.273 1.723-2.332 1.73-1.996.067-3.988-.003-5.98.032 1.86-3.871 3.66-7.777 5.601-11.606 1.567-2.945 4.871-4.074 7.614-5.601" style="stroke:none;fill-rule:nonzero;fill:#212557;fill-opacity:1"/></g></svg>
